svgs/solid/user-pen.svg

<svg xmlns="http://www.w3.org/2000/svg" viewBox="0 0 640 512"><!--! Font Awesome Pro 6.0.0-alpha3 by @fontawesome - https://fontawesome.com License - https://fontawesome.com/license (Commercial License) --><path d="M223.1 256c70.7 0 128-57.31 128-128s-57.3-128-128-128C153.3 0 96 57.31 96 128S153.3 256 223.1 256zM274.7 304H173.3C77.61 304 0 381.7 0 477.4C0 496.5 15.52 512 34.66 512h286.4c-1.246-5.531-1.43-11.31-.2832-17.04l14.28-71.41c1.943-9.723 6.676-18.56 13.68-25.56l45.72-45.72C363.3 322.4 321.2 304 274.7 304zM371.4 420.6c-2.514 2.512-4.227 5.715-4.924 9.203l-14.28 71.41c-1.258 6.289 4.293 11.84 10.59 10.59l71.42-14.29c3.482-.6992 6.682-2.406 9.195-4.922l125.3-125.3l-72.01-72.01L371.4 420.6zM629.5 255.7l-21.1-21.11c-14.06-14.06-36.85-14.06-50.91 0l-38.13 38.14l72.01 72.01l38.13-38.13C643.5 292.5 643.5 269.7 629.5 255.7z"/></svg>

<svg xmlns="http://www.w3.org/2000/svg" viewBox="0 0 640 512"><!-- Font Awesome Pro 6.0.0-alpha2 by @fontawesome - https://fontawesome.com License - https://fontawesome.com/license (Commercial License) --><path d="M224 256C294.695 256 352 198.691 352 128S294.695 0 224 0C153.312 0 96 57.309 96 128S153.312 256 224 256ZM274.664 304H173.336C77.609 304 0 381.602 0 477.332C0 496.477 15.523 512 34.664 512H321.084C319.838 506.469 319.654 500.688 320.801 494.961L335.082 423.547C337.025 413.824 341.758 404.984 348.758 397.988L394.48 352.266C363.346 322.43 321.193 304 274.664 304ZM371.385 420.617C368.871 423.129 367.158 426.332 366.461 429.82L352.18 501.234C350.922 507.523 356.473 513.078 362.77 511.82L434.189 497.535C437.672 496.836 440.871 495.129 443.385 492.613L542.307 393.703H542.312L568.697 367.32L496.689 295.313L371.385 420.617ZM629.457 255.656L608.355 234.551C594.297 220.492 571.504 220.492 557.447 234.551L519.313 272.688L591.322 344.695L629.453 306.566C643.514 292.508 643.516 269.715 629.457 255.656Z"/></svg>
